X: 10573
T: Dot Cat's Midnight Mischief
R: jig
M: 6/8
K: Aminor
G,|:A,2E EDC|DEC B,A,G,|A,2E EDC|AEG A2G,|
[1 A,2E EDC|DEC B,A,G,|A,B,C AEG|DGB, A,2G,:|
[2 A,2E EDC|DEC B,A,G,|A,B,C AGE|AGB, A,3||
|:AEA edc|deA a2g|AEA edc|deA G3|
AEA edc|deA a3|gae dec|ABG A3:|

